Adwaita++-Light/panel/22/indicator-workspaces-1.svg

<svg height="22" width="22" xmlns="http://www.w3.org/2000/svg">
  <path d="m5 3c-1.108 0-2 .892-2 2v9c0 1.108.892 2 2 2h4l-2.2890625 2c-1.0374129.9062-.9473684 1 0 1h7.5781245c.94737 0 .947368 0 0-1l-2.289062-2h4c1.108 0 2-.892 2-2v-9c0-1.108-.892-2-2-2zm0 2h11v9h-11zm5 1v1h-1v1h1v4h-1v1h3v-1h-1v-6z" fill="#444"/>
</svg>

<svg xmlns="http://www.w3.org/2000/svg" width="22" height="22" version="1.1">
 <defs>
  <style id="current-color-scheme" type="text/css">
   .ColorScheme-Text { color:#444444; } .ColorScheme-Highlight { color:#4285f4; }
  </style>
 </defs>
 <path style="fill:currentColor" class="ColorScheme-Text" d="M 5 3 C 3.892 3 3 3.892 3 5 L 3 14 C 3 15.108 3.892 16 5 16 L 9 16 L 6.7109375 18 C 5.6735246 18.9062 5.7635691 19 6.7109375 19 L 14.289062 19 C 15.236432 19 15.23643 19 14.289062 18 L 12 16 L 16 16 C 17.108 16 18 15.108 18 14 L 18 5 C 18 3.892 17.108 3 16 3 L 5 3 z M 5 5 L 16 5 L 16 14 L 5 14 L 5 5 z M 10 6 L 10 7 L 9 7 L 9 8 L 10 8 L 10 12 L 9 12 L 9 13 L 12 13 L 12 12 L 11 12 L 11 6 L 10 6 z"/>
</svg>
